components/2.0/icon/icons/icon-folder-person-22px.svg

<svg width="22" height="22" xmlns="http://www.w3.org/2000/svg"><path d="M12 6l-2-2H2v14h18V6h-8zm0 10H4v-2l3-1v-1c-.6 0-1-.4-1-1V8c0-.6.4-1 1-1h2c.6 0 1 .4 1 1v3c0 .6-.4 1-1 1v1l3 1v2z" fill="#5A5A5A" fill-rule="evenodd"/></svg>

<?xml version="1.0" encoding="UTF-8" standalone="no"?>
<svg width="22px" height="22px" viewBox="0 0 22 22" version="1.1" xmlns="http://www.w3.org/2000/svg" xmlns:xlink="http://www.w3.org/1999/xlink" xmlns:sketch="http://www.bohemiancoding.com/sketch/ns">
    <!-- Generator: Sketch 3.4.4 (17249) - http://www.bohemiancoding.com/sketch -->
    <title>icon-folder-person-22px</title>
    <desc>Created with Sketch.</desc>
    <defs></defs>
    <g id="22px" stroke="none" stroke-width="1" fill="none" fill-rule="evenodd" sketch:type="MSPage">
        <g id="icon-folder-person-22px" sketch:type="MSArtboardGroup" fill="#5A5A5A">
            <path d="M12.1,6 L10,4 L2,4 L2,18 L20,18 L20,6 L12.1,6 L12.1,6 Z M12,16 L4,16 L4,14 L7,13 L7,12 C6.4,12 6,11.6 6,11 L6,8 C6,7.4 6.4,7 7,7 L9,7 C9.6,7 10,7.4 10,8 L10,11 C10,11.6 9.6,12 9,12 L9,13 L12,14 L12,16 L12,16 Z" id="Shape" sketch:type="MSShapeGroup"></path>
        </g>
    </g>
</svg>
